images/flat-color-icons-svg/link.svg

<svg enable-background="new 0 0 48 48" viewBox="0 0 48 48" xmlns="http://www.w3.org/2000/svg"><g fill="#1976d2"><path d="m38 13h-3c-5.5 0-10 4.5-10 10s4.5 10 10 10h3c5.5 0 10-4.5 10-10s-4.5-10-10-10zm0 16h-3c-3.3 0-6-2.7-6-6s2.7-6 6-6h3c3.3 0 6 2.7 6 6s-2.7 6-6 6z"/><path d="m13 13h-3c-5.5 0-10 4.5-10 10s4.5 10 10 10h3c5.5 0 10-4.5 10-10s-4.5-10-10-10zm0 16h-3c-3.3 0-6-2.7-6-6s2.7-6 6-6h3c3.3 0 6 2.7 6 6s-2.7 6-6 6z"/></g><path d="m33 21h-18c-1.1 0-2 .9-2 2s.9 2 2 2h18c1.1 0 2-.9 2-2s-.9-2-2-2z" fill="#42a5f5"/></svg>

<svg version="1" xmlns="http://www.w3.org/2000/svg" viewBox="0 0 48 48" enable-background="new 0 0 48 48">
    <g fill="#1976D2">
        <path d="M38,13h-3c-5.5,0-10,4.5-10,10s4.5,10,10,10h3c5.5,0,10-4.5,10-10S43.5,13,38,13z M38,29h-3 c-3.3,0-6-2.7-6-6s2.7-6,6-6h3c3.3,0,6,2.7,6,6S41.3,29,38,29z"/>
        <path d="M13,13h-3C4.5,13,0,17.5,0,23s4.5,10,10,10h3c5.5,0,10-4.5,10-10S18.5,13,13,13z M13,29h-3 c-3.3,0-6-2.7-6-6s2.7-6,6-6h3c3.3,0,6,2.7,6,6S16.3,29,13,29z"/>
    </g>
    <path fill="#42A5F5" d="M33,21H15c-1.1,0-2,0.9-2,2s0.9,2,2,2h18c1.1,0,2-0.9,2-2S34.1,21,33,21z"/>
</svg>
